X: 32347
T: Pini Moniano
R: waltz
M: 3/4
K: Dminor
|:a2 _a=a ba|f2 ef ge|d2 _d=d ed|B4 cB|A4 _d=d|
ef g3e|d4 _d=d|ef e_d A2|a2 _a=a ba|f2 ef ge|
d2 _d=d ed|B4 cB|A4 _d=d|ef g3e|d3A FE|D6:|
|:a4 g2|f2 g2 a2|b4 a2|g6|g4 f2|
e2 f2 g2|a2 ab a_a|a6|f4 e2|d2 e2 f2|
g4 a2|b6|a2 _a=a ba|f2 ef ge|d3A FE|D6:|
|:D3F Ad|A2 F2 D2|F6|E6|G2 A2 B2|
F4 G2|A3B A_A|A6|d_d =dA de|f2 e2 d2|
c4 =B2|B4 cB|A2 _A=A BA|F2 EF GE|D2 FD FA|d6:|

